;FLAVOR:Marlin
;TIME:9140
;Filament used: 4.83268m
;Layer height: 0.2
;MINX:15.318
;MINY:45.246
;MINZ:0.2
;MAXX:133.857
;MAXY:119.722
;MAXZ:5
;Generated with Cura_SteamEngine 5.4.0
M140 S60
M105
M190 S60
M104 S210
M105
M109 S210
M82 ;absolute extrusion mode
M201 X500.00 Y500.00 Z100.00 E5000.00 ;Setup machine max acceleration
M203 X500.00 Y500.00 Z10.00 E50.00 ;Setup machine max feedrate
M204 P500.00 R1000.00 T500.00 ;Setup Print/Retract/Travel acceleration
M205 X8.00 Y8.00 Z0.40 E5.00 ;Setup Jerk
M220 S100 ;Reset Feedrate
M221 S100 ;Reset Flowrate

G28 ;Home

G92 E0 ;Reset Extruder
G1 Z2.0 F3000 ;Move Z Axis up
G1 X10.1 Y20 Z0.28 F5000.0 ;Move to start position
G1 X10.1 Y100.0 Z0.28 F1500.0 E8 ;Draw the first line
G1 X10.4 Y100.0 Z0.28 F5000.0 ;Move to side a little
G1 X10.4 Y20 Z0.28 F1500.0 E15 ;Draw the second line
G92 E0 ;Reset Extruder
G1 Z2.0 F3000 ;Move Z Axis up

G92 E0
G92 E0
G1 F2700 E-5
;LAYER_COUNT:25
;LAYER:0
M107
M204 S500
M205 X8 Y8
G0 F6000 X23.454 Y46.81 Z0.2
;TYPE:SKIRT
G1 F2700 E0
G1 F600 X24.756 Y46.239 E0.04841
G1 X25.207 Y46.077 E0.06473
G1 X26.333 Y45.731 E0.10484
G1 X27.497 Y45.485 E0.14535
G1 X27.984 Y45.411 E0.16212
G1 X29.098 Y45.285 E0.20029
G1 X29.777 Y45.259 E0.22343
G1 X30.658 Y45.248 E0.25343
G1 X39.901 Y45.246 E0.56815
G1 X41.383 Y45.265 E0.61862
G1 X42.957 Y45.308 E0.67224
G1 X45.426 Y45.308 E0.7563
G1 X46.461 Y45.295 E0.79155
G1 X55.721 Y45.293 E1.10685
G1 X57.733 Y45.32 E1.17537
G1 X60.319 Y45.32 E1.26342
G1 X62.192 Y45.295 E1.3272
G1 X71.43 Y45.293 E1.64176
G1 X73.339 Y45.319 E1.70677
G1 X73.996 Y45.338 E1.72915
G1 X76.715 Y45.336 E1.82173
G1 X77.83 Y45.319 E1.8597
G1 X87.11 Y45.316 E2.17568
G1 X88.638 Y45.336 E2.22772
G1 X91.202 Y45.334 E2.31502
G1 X93.512 Y45.296 E2.39369
G1 X102.921 Y45.293 E2.71406
G1 X104.933 Y45.32 E2.78258
G1 X107.519 Y45.32 E2.87063
G1 X109.392 Y45.295 E2.93441
G1 X118.797 Y45.294 E3.25465
G1 X119.594 Y45.311 E3.2818
G1 X120.769 Y45.393 E3.3219
G1 X121.896 Y45.573 E3.36076
G1 X122.598 Y45.727 E3.38524
G1 X123.711 Y46.031 E3.42452
G1 X124.561 Y46.338 E3.45529
G1 X125.602 Y46.803 E3.49412
G1 X126.664 Y47.369 E3.53509
G1 X127.568 Y47.96 E3.57187
G1 X128.143 Y48.382 E3.59615
G1 X129.066 Y49.137 E3.63676
G1 X129.744 Y49.789 E3.66879
G1 X130.676 Y50.863 E3.71721
G1 X131.333 Y51.789 E3.75587
G1 X131.749 Y52.449 E3.78243
G1 X132.291 Y53.422 E3.82035
G1 X132.857 Y54.713 E3.86835
G1 X133.031 Y55.198 E3.8859
G1 X133.374 Y56.316 E3.92572
G1 X133.619 Y57.46 E3.96555
G1 X133.678 Y57.821 E3.97801
G1 X133.817 Y59.051 E4.02016
G1 X133.844 Y59.741 E4.04367
G1 X133.855 Y60.607 E4.07316
G1 X133.857 Y99.386 E5.39359
G1 X133.828 Y100.661 E5.43701
G1 X133.789 Y101.409 E5.46251
G1 X133.747 Y101.897 E5.47919
G1 X133.654 Y102.677 E5.50594
G1 X133.512 Y103.547 E5.53596
G1 X133.252 Y104.722 E5.57693
G1 X133.005 Y105.615 E5.60848
G1 X132.863 Y106.059 E5.62435
G1 X132.534 Y106.995 E5.65814
G1 X132.16 Y107.888 E5.6911
G1 X131.82 Y108.606 E5.71815
G1 X131.422 Y109.38 E5.74779
G1 X131.086 Y109.976 E5.77108
G1 X130.613 Y110.742 E5.80174
G1 X130.353 Y111.131 E5.81767
G1 X129.711 Y112.007 E5.85465
G1 X129.31 Y112.51 E5.87655
G1 X128.705 Y113.21 E5.90806
G1 X128.389 Y113.55 E5.92386
G1 X127.636 Y114.299 E5.96003
G1 X127.113 Y114.778 E5.98417
G1 X126.72 Y115.114 E6.00178
G1 X126.075 Y115.63 E6.02991
G1 X125.238 Y116.234 E6.06505
G1 X124.411 Y116.772 E6.09864
G1 X123.815 Y117.127 E6.12227
G1 X123.069 Y117.529 E6.15112
G1 X122.052 Y118.01 E6.18943
G1 X121.614 Y118.197 E6.20564
G1 X120.973 Y118.448 E6.22908
G1 X120.555 Y118.595 E6.24417
G1 X119.65 Y118.881 E6.27649
G1 X118.9 Y119.085 E6.30295
G1 X118.083 Y119.274 E6.33151
G1 X117.41 Y119.405 E6.35485
G1 X116.506 Y119.544 E6.386
G1 X116.066 Y119.597 E6.40109
G1 X115.329 Y119.656 E6.42626
G1 X114.277 Y119.696 E6.46211
G1 X113.338 Y119.691 E6.49408
G1 X109.06 Y119.474 E6.63993
G1 X106.612 Y119.423 E6.72331
G1 X104.253 Y119.444 E6.80363
G1 X100.447 Y119.604 E6.93334
G1 X99.459 Y119.666 E6.96705
G1 X98.813 Y119.69 E6.98906
G1 X97.698 Y119.694 E7.02703
G1 X93.498 Y119.483 E7.17022
G1 X91.05 Y119.432 E7.25359
G1 X88.695 Y119.453 E7.33378
G1 X84.824 Y119.619 E7.46571
G1 X83.635 Y119.693 E7.50628
G1 X83.034 Y119.715 E7.52675
G1 X82.472 Y119.722 E7.54589
G1 X81.863 Y119.717 E7.56663
G1 X81.174 Y119.683 E7.59012
G1 X80.045 Y119.611 E7.62864
G1 X77.601 Y119.489 E7.71196
G1 X75.055 Y119.434 E7.79867
G1 X72.662 Y119.451 E7.88016
G1 X70.107 Y119.54 E7.96721
G1 X67.835 Y119.673 E8.0447
G1 X66.726 Y119.698 E8.08247
G1 X66.14 Y119.691 E8.10243
G1 X61.86 Y119.474 E8.24835
G1 X59.412 Y119.423 E8.33172
G1 X57.053 Y119.444 E8.41205
G1 X53.247 Y119.606 E8.54176
G1 X52.202 Y119.671 E8.57741
G1 X51.641 Y119.69 E8.59652
G1 X51.028 Y119.698 E8.6174
G1 X50.415 Y119.691 E8.63827
G1 X48.533 Y119.583 E8.70246
G1 X48.252 Y119.574 E8.71203
G1 X47.196 Y119.507 E8.74806
G1 X44.685 Y119.416 E8.83362
G1 X42.251 Y119.395 E8.9165
G1 X39.8 Y119.446 E8.99997
G1 X37.094 Y119.574 E9.09222
G1 X36.183 Y119.631 E9.1233
G1 X35.584 Y119.649 E9.1437
G1 X35.094 Y119.652 E9.16039
G1 X34.453 Y119.638 E9.18222
G1 X33.841 Y119.608 E9.20308
G1 X33.059 Y119.544 E9.2298
G1 X32.325 Y119.45 E9.25499
G1 X31.378 Y119.29 E9.2877
G1 X30.304 Y119.055 E9.32513
G1 X29.403 Y118.806 E9.35696
G1 X28.973 Y118.67 E9.37232
G1 X28.349 Y118.454 E9.3948
G1 X27.901 Y118.283 E9.41113
G1 X27.03 Y117.915 E9.44333
G1 X26.407 Y117.619 E9.46681
G1 X25.666 Y117.236 E9.49521
G1 X25.046 Y116.886 E9.51946
G1 X24.261 Y116.401 E9.55088
G1 X23.866 Y116.134 E9.56711
G1 X23.305 Y115.73 E9.59065
G1 X22.538 Y115.132 E9.62377
G1 X22.202 Y114.848 E9.63875
G1 X21.556 Y114.268 E9.66831
G1 X20.983 Y113.703 E9.69571
G1 X20.476 Y113.165 E9.72088
G1 X19.893 Y112.495 E9.75112
G1 X19.558 Y112.079 E9.76931
G1 X19.076 Y111.444 E9.79645
G1 X18.43 Y110.492 E9.83563
G1 X17.927 Y109.661 E9.8687
G1 X17.713 Y109.275 E9.88373
G1 X17.284 Y108.431 E9.91597
G1 X17.014 Y107.847 E9.93787
G1 X16.821 Y107.394 E9.95464
G1 X16.449 Y106.423 E9.99005
G1 X16.243 Y105.797 E10.01249
G1 X16.083 Y105.267 E10.03134
G1 X15.863 Y104.408 E10.06153
G1 X15.73 Y103.773 E10.08362
G1 X15.593 Y103.011 E10.10998
G1 X15.479 Y102.254 E10.13605
G1 X15.374 Y101.225 E10.17127
G1 X15.333 Y100.286 E10.20327
G1 X15.318 Y99.127 E10.24274
G1 X15.319 Y60.353 E11.563
G1 X15.335 Y59.59 E11.58898
G1 X15.412 Y58.475 E11.62704
G1 X15.57 Y57.415 E11.66353
G1 X15.696 Y56.777 E11.68568
G1 X15.977 Y55.654 E11.72509
G1 X16.309 Y54.68 E11.76013
G1 X16.653 Y53.87 E11.7901
G1 X16.818 Y53.52 E11.80327
G1 X17.383 Y52.46 E11.84417
G1 X18.011 Y51.5 E11.88323
G1 X18.449 Y50.909 E11.90828
G1 X19.162 Y50.041 E11.94653
G1 X20.006 Y49.182 E11.98753
G1 X20.908 Y48.416 E12.02783
G1 X21.916 Y47.705 E12.06983
G1 X22.461 Y47.364 E12.09172
G1 X23.454 Y46.81 E12.13044
G0 F6000 X23.659 Y47.177
G1 F600 X24.924 Y46.624 E12.17745
G1 X25.331 Y46.478 E12.19217
G1 X26.42 Y46.142 E12.23097
G1 X27.584 Y45.896 E12.27148
G1 X28.031 Y45.828 E12.28688
G1 X29.114 Y45.705 E12.32399
G1 X29.782 Y45.679 E12.34676
G1 X30.658 Y45.668 E12.37659
G1 X39.896 Y45.666 E12.69114
G1 X41.372 Y45.685 E12.7414
G1 X42.946 Y45.728 E12.79502
G1 X45.431 Y45.728 E12.87963
G1 X46.461 Y45.715 E12.91471
G1 X55.715 Y45.713 E13.22981
G1 X57.727 Y45.74 E13.29832
G1 X60.325 Y45.74 E13.38678
G1 X62.192 Y45.715 E13.45036
G1 X71.424 Y45.713 E13.76471
G1 X73.327 Y45.739 E13.82951
G1 X73.984 Y45.758 E13.85189
G1 X76.721 Y45.756 E13.94509
G1 X77.83 Y45.739 E13.98285
G1 X87.105 Y45.736 E14.29867
G1 X88.633 Y45.756 E14.3507
G1 X91.209 Y45.754 E14.43841
G1 X93.512 Y45.716 E14.51684
G1 X102.915 Y45.713 E14.83701
G1 X104.927 Y45.74 E14.90553
G1 X107.525 Y45.74 E14.99399
G1 X109.392 Y45.715 E15.05757
G1 X118.788 Y45.714 E15.3775
G1 X119.565 Y45.73 E15.40397
G1 X120.703 Y45.808 E15.44281
G1 X121.83 Y45.988 E15.48167
G1 X122.488 Y46.132 E15.5046
G1 X123.568 Y46.426 E15.54271
G1 X124.418 Y46.733 E15.57349
G1 X125.405 Y47.174 E15.6103
G1 X126.434 Y47.721 E15.64998
G1 X127.338 Y48.312 E15.68675
G1 X127.877 Y48.707 E15.70951
G1 X128.775 Y49.44 E15.74898
G1 X129.453 Y50.092 E15.781
G1 X130.333 Y51.106 E15.82672
G1 X130.99 Y52.032 E15.86538
G1 X131.382 Y52.654 E15.89041
G1 X131.906 Y53.591 E15.92697
G1 X132.472 Y54.882 E15.97497
G1 X132.63 Y55.321 E15.99085
G1 X132.963 Y56.404 E16.02943
G1 X133.204 Y57.528 E16.06858
G1 X133.263 Y57.889 E16.08103
G1 X133.397 Y59.068 E16.12144
G1 X133.424 Y59.746 E16.14454
G1 X133.435 Y60.607 E16.17386
G1 X133.437 Y99.377 E17.49398
G1 X133.409 Y100.639 E17.53696
G1 X133.37 Y101.374 E17.56202
G1 X133.33 Y101.847 E17.57819
G1 X133.239 Y102.609 E17.60432
G1 X133.097 Y103.479 E17.63433
G1 X132.847 Y104.61 E17.67377
G1 X132.605 Y105.487 E17.70475
G1 X132.467 Y105.92 E17.72023
G1 X132.147 Y106.833 E17.75317
G1 X131.78 Y107.709 E17.78551
G1 X131.447 Y108.414 E17.81206
G1 X131.056 Y109.174 E17.84116
G1 X130.728 Y109.756 E17.8639
G1 X130.264 Y110.509 E17.89402
G1 X130.014 Y110.883 E17.90934
G1 X129.383 Y111.745 E17.94571
G1 X128.992 Y112.235 E17.96706
G1 X128.397 Y112.924 E17.99806
G1 X128.093 Y113.252 E18.01328
G1 X127.353 Y113.989 E18.04885
G1 X126.839 Y114.459 E18.07256
G1 X126.458 Y114.786 E18.08966
G1 X125.829 Y115.289 E18.11708
G1 X124.992 Y115.893 E18.15223
G1 X124.196 Y116.411 E18.18456
G1 X123.615 Y116.757 E18.20759
G1 X122.889 Y117.149 E18.23568
G1 X121.887 Y117.624 E18.27344
G1 X121.461 Y117.806 E18.28922
G1 X120.833 Y118.052 E18.31218
G1 X120.428 Y118.195 E18.32681
G1 X119.54 Y118.476 E18.35852
G1 X118.805 Y118.676 E18.38446
G1 X118.003 Y118.862 E18.41249
G1 X117.346 Y118.99 E18.43528
G1 X116.456 Y119.127 E18.46594
G1 X116.032 Y119.178 E18.48048
G1 X115.313 Y119.236 E18.50505
G1 X114.279 Y119.276 E18.54028
G1 X113.359 Y119.272 E18.57161
G1 X109.069 Y119.054 E18.71787
G1 X106.617 Y119.003 E18.80138
G1 X104.235 Y119.024 E18.88249
G1 X100.429 Y119.185 E19.0122
G1 X99.443 Y119.246 E19.04584
G1 X98.811 Y119.27 E19.06737
G1 X97.696 Y119.274 E19.10534
G1 X93.507 Y119.063 E19.24815
G1 X91.055 Y119.012 E19.33166
G1 X88.677 Y119.033 E19.41264
G1 X84.806 Y119.199 E19.54457
G1 X83.609 Y119.274 E19.5854
G1 X83.029 Y119.295 E19.60517
G1 X82.476 Y119.302 E19.624
G1 X81.883 Y119.297 E19.64419
G1 X81.201 Y119.264 E19.66744
G1 X80.072 Y119.192 E19.70596
G1 X77.61 Y119.069 E19.78989
G1 X75.061 Y119.014 E19.87671
G1 X72.647 Y119.031 E19.95891
G1 X70.092 Y119.12 E20.04596
G1 X67.825 Y119.253 E20.12328
G1 X66.73 Y119.278 E20.16058
G1 X66.161 Y119.272 E20.17995
G1 X61.869 Y119.054 E20.32628
G1 X59.417 Y119.003 E20.40979
G1 X57.035 Y119.024 E20.4909
G1 X53.229 Y119.186 E20.62061
G1 X52.188 Y119.251 E20.65613
G1 X51.635 Y119.27 E20.67497
G1 X51.032 Y119.278 E20.6955
G1 X50.439 Y119.272 E20.7157
G1 X48.546 Y119.163 E20.78026
G1 X48.279 Y119.155 E20.78936
G1 X47.211 Y119.087 E20.8258
G1 X44.7 Y118.996 E20.91135
G1 X42.246 Y118.975 E20.99491
G1 X39.78 Y119.026 E21.0789
G1 X37.074 Y119.155 E21.17114
G1 X36.17 Y119.211 E21.20198
G1 X35.581 Y119.229 E21.22205
G1 X35.103 Y119.232 E21.23832
G1 X34.473 Y119.218 E21.25978
G1 X33.875 Y119.189 E21.28017
G1 X33.112 Y119.127 E21.30623
G1 X32.395 Y119.036 E21.33084
G1 X31.468 Y118.88 E21.36285
G1 X30.416 Y118.65 E21.39952
G1 X29.53 Y118.406 E21.43081
G1 X29.11 Y118.273 E21.44581
G1 X28.499 Y118.062 E21.46782
G1 X28.064 Y117.896 E21.48367
G1 X27.21 Y117.536 E21.51523
G1 X26.6 Y117.246 E21.53823
G1 X25.872 Y116.87 E21.56613
G1 X25.267 Y116.529 E21.58978
G1 X24.496 Y116.053 E21.62063
G1 X24.111 Y115.793 E21.63645
G1 X23.563 Y115.399 E21.65943
G1 X22.809 Y114.812 E21.69197
G1 X22.482 Y114.535 E21.70656
G1 X21.851 Y113.969 E21.73542
G1 X21.289 Y113.415 E21.76229
G1 X20.793 Y112.889 E21.78691
G1 X20.22 Y112.232 E21.81659
G1 X19.893 Y111.825 E21.83437
G1 X19.411 Y111.19 E21.86151
G1 X18.789 Y110.275 E21.89919
G1 X18.294 Y109.457 E21.93174
G1 X18.087 Y109.084 E21.94627
G1 X17.665 Y108.255 E21.97794
G1 X17.4 Y107.682 E21.99944
G1 X17.213 Y107.244 E22.01565
G1 X16.848 Y106.292 E22.05037
G1 X16.645 Y105.676 E22.07246
G1 X16.49 Y105.163 E22.0907
G1 X16.274 Y104.322 E22.12027
G1 X16.143 Y103.699 E22.14195
G1 X16.008 Y102.948 E22.16793
G1 X15.897 Y102.211 E22.19331
G1 X15.794 Y101.206 E22.22771
G1 X15.753 Y100.281 E22.25923
G1 X15.738 Y99.127 E22.29853
G1 X15.739 Y60.361 E23.61851
G1 X15.754 Y59.619 E23.64378
G1 X15.831 Y58.504 E23.68184
G1 X15.982 Y57.496 E23.71655
G1 X16.104 Y56.878 E23.738
G1 X16.375 Y55.789 E23.77621
G1 X16.696 Y54.844 E23.81019
G1 X17.033 Y54.049 E23.83959
G1 X17.189 Y53.717 E23.85208
G1 X17.735 Y52.69 E23.89169
G1 X18.349 Y51.75 E23.92992
G1 X18.774 Y51.175 E23.95426
G1 X19.462 Y50.335 E23.99123
G1 X20.278 Y49.502 E24.03094
G1 X21.15 Y48.759 E24.06995
G1 X22.139 Y48.061 E24.11116
G1 X22.666 Y47.731 E24.13234
G1 X23.659 Y47.177 E24.17105
G0 F6000 X23.864 Y47.544
G1 F600 X25.067 Y47.019 E24.21575
G1 X25.455 Y46.879 E24.22979
G1 X26.507 Y46.553 E24.26729
G1 X27.648 Y46.311 E24.30701
G1 X28.079 Y46.245 E24.32186
G1 X29.131 Y46.125 E24.35791
G1 X29.787 Y46.099 E24.38026
G1 X30.658 Y46.088 E24.40992
G1 X39.891 Y46.086 E24.72431
G1 X41.361 Y46.105 E24.77437
G1 X42.935 Y46.148 E24.82798
G1 X45.436 Y46.148 E24.91314
G1 X46.461 Y46.135 E24.94804
G1 X55.709 Y46.133 E25.26294
G1 X57.721 Y46.16 E25.33145
G1 X60.331 Y46.16 E25.42032
G1 X62.192 Y46.135 E25.4837
G1 X71.418 Y46.133 E25.79784
G1 X73.315 Y46.159 E25.86244
G1 X73.972 Y46.178 E25.88482
G1 X76.727 Y46.176 E25.97863
G1 X77.83 Y46.159 E26.01619
G1 X87.1 Y46.156 E26.33184
G1 X88.628 Y46.176 E26.38387
G1 X91.216 Y46.174 E26.47199
G1 X93.512 Y46.136 E26.55018
G1 X102.909 Y46.133 E26.87015
G1 X104.921 Y46.16 E26.93866
G1 X107.531 Y46.16 E27.02753
G1 X109.392 Y46.135 E27.09091
G1 X118.78 Y46.134 E27.41057
G1 X119.537 Y46.149 E27.43635
G1 X120.637 Y46.223 E27.47389
G1 X121.764 Y46.403 E27.51275
G1 X122.378 Y46.537 E27.53415
G1 X123.425 Y46.821 E27.57109
G1 X124.275 Y47.128 E27.60186
G1 X125.208 Y47.545 E27.63666
G1 X126.204 Y48.073 E27.67504
G1 X127.108 Y48.664 E27.71182
G1 X127.612 Y49.033 E27.73309
G1 X128.484 Y49.743 E27.77138
G1 X129.162 Y50.395 E27.8034
G1 X129.99 Y51.349 E27.84642
G1 X130.647 Y52.275 E27.88508
G1 X131.016 Y52.86 E27.90863
G1 X131.521 Y53.76 E27.94377
G1 X132.087 Y55.051 E27.99177
G1 X132.229 Y55.445 E28.00603
G1 X132.552 Y56.492 E28.04333
G1 X132.789 Y57.596 E28.08178
G1 X132.848 Y57.957 E28.09424
G1 X132.977 Y59.085 E28.1329
G1 X133.004 Y59.751 E28.15559
G1 X133.015 Y60.607 E28.18474
G1 X133.017 Y99.368 E29.50456
G1 X132.99 Y100.617 E29.54709
G1 X132.952 Y101.338 E29.57168
G1 X132.913 Y101.797 E29.58736
G1 X132.824 Y102.541 E29.61288
G1 X132.682 Y103.411 E29.64289
G1 X132.442 Y104.499 E29.68083
G1 X132.205 Y105.36 E29.71124
G1 X132.071 Y105.781 E29.72628
G1 X131.759 Y106.671 E29.75839
G1 X131.4 Y107.53 E29.79009
G1 X131.074 Y108.222 E29.81614
G1 X130.69 Y108.968 E29.84471
G1 X130.37 Y109.536 E29.86691
G1 X129.915 Y110.276 E29.89649
G1 X129.675 Y110.635 E29.91119
G1 X129.055 Y111.483 E29.94696
G1 X128.674 Y111.96 E29.96775
G1 X128.079 Y112.649 E29.99875
G1 X127.796 Y112.955 E30.01294
G1 X127.07 Y113.679 E30.04785
G1 X126.566 Y114.14 E30.07111
G1 X126.195 Y114.458 E30.08774
G1 X125.583 Y114.948 E30.11444
G1 X124.746 Y115.552 E30.14959
G1 X123.981 Y116.05 E30.18067
G1 X123.415 Y116.387 E30.2031
G1 X122.689 Y116.779 E30.23119
G1 X121.722 Y117.238 E30.26764
G1 X121.308 Y117.415 E30.28297
G1 X120.693 Y117.656 E30.30546
G1 X120.301 Y117.795 E30.31962
G1 X119.43 Y118.071 E30.35073
G1 X118.71 Y118.267 E30.37614
G1 X117.923 Y118.45 E30.40365
G1 X117.282 Y118.575 E30.42589
G1 X116.406 Y118.71 E30.45607
G1 X115.998 Y118.759 E30.47006
G1 X115.296 Y118.816 E30.49404
G1 X114.28 Y118.856 E30.52867
G1 X113.38 Y118.853 E30.55931
